src/DGGeoclicker/skin/dark/img/DGPopup__pathIcon_dark.svg

<svg xmlns="http://www.w3.org/2000/svg" width="20" height="7"><path fill="#9F9F9F" d="M16.5 0c-1.762 0-3.205 1.306-3.449 3h-8.102c-.231-1.142-1.239-2-2.449-2-1.381 0-2.5 1.119-2.5 2.5s1.119 2.5 2.5 2.5c1.21 0 2.218-.858 2.449-2h8.102c.244 1.693 1.688 3 3.449 3 1.933 0 3.5-1.567 3.5-3.5 0-1.934-1.567-3.5-3.5-3.5z"/></svg>

<svg xmlns="http://www.w3.org/2000/svg" width="20" height="7">
    <path d="M 16.5,0 C 14.738,0 13.295,1.306 13.051,3 H 4.949 C 4.718,1.858 3.71,1 2.5,1 1.119,1 0,2.119 0,3.5 0,4.881 1.119,6 2.5,6 3.71,6 4.718,5.142 4.949,4 h 8.102 C 13.295,5.693 14.739,7 16.5,7 18.433,7 20,5.433 20,3.5 20,1.566 18.433,0 16.5,0 z" fill="#9f9f9f"/>
</svg>
